source/img/icons-sprite/header-twitter.svg

<svg width="23" height="20" viewBox="0 0 23 20" fill="none" xmlns="http://www.w3.org/2000/svg">
<path d="M1.85054 6.49383C4.51699 2.62477 8.78336 0.184274 13.183 0.00570088C15.9829 -0.0835877 19.0227 0.868803 20.7292 3.36883C22.0625 5.30335 22.3825 7.83313 22.6491 10.2439C22.8358 11.9999 22.9691 13.9046 22.1958 15.482C21.2892 17.3273 19.316 18.1904 17.5027 18.7857C15.1563 19.5594 12.7031 20.125 10.2766 19.9761C7.85009 19.8273 5.37027 18.8452 3.66375 16.8808C2.17048 15.1844 1.37057 12.8927 0.890603 10.6308C0.623931 9.41053 0.890602 7.88675 1.85054 6.49383Z" fill="#DBDBDB"/>
<path d="M5.79297 13.9838C6.89343 14.6371 8.17725 15 9.56589 15C14.1249 15 16.6925 11.4436 16.5615 8.25C17.0331 7.93548 17.4523 7.52418 17.793 7.06454C17.3475 7.23385 16.8759 7.37901 16.3781 7.4274C16.8759 7.13707 17.2689 6.70163 17.4523 6.16936C16.9807 6.43549 16.4567 6.62905 15.8803 6.72582C15.4349 6.29033 14.806 6 14.0986 6C12.5004 6 11.3475 7.35482 11.7144 8.78227C9.64449 8.70969 7.83663 7.81451 6.63141 6.43549C5.97639 7.45159 6.29079 8.78227 7.39125 9.45965C6.99819 9.45965 6.60519 9.33874 6.29079 9.16938C6.26457 10.2097 7.07679 11.2016 8.25585 11.4194C7.91523 11.5162 7.52223 11.5162 7.15539 11.4678C7.46985 12.3629 8.38683 13.0161 9.46107 13.0403C8.38683 13.7903 7.10301 14.129 5.79297 13.9838Z" fill="white"/>
</svg>

<svg width="23" height="20" fill="none" xmlns="http://www.w3.org/2000/svg"><path d="M1.85 6.494C4.518 2.624 8.784.184 13.184.006c2.8-.09 5.84.863 7.546 3.363 1.334 1.934 1.654 4.464 1.92 6.875.187 1.756.32 3.66-.453 5.238-.907 1.845-2.88 2.708-4.693 3.304-2.347.773-4.8 1.339-7.226 1.19-2.427-.149-4.907-1.13-6.613-3.095C2.17 15.184 1.37 12.893.89 10.63c-.267-1.22 0-2.744.96-4.137z" fill="#DBDBDB"/><path d="M5.793 13.984A7.34 7.34 0 0 0 9.566 15c4.559 0 7.126-3.556 6.995-6.75.472-.315.891-.726 1.232-1.185-.445.169-.917.314-1.415.362.498-.29.89-.725 1.074-1.258-.471.266-.995.46-1.572.557A2.549 2.549 0 0 0 14.1 6c-1.599 0-2.752 1.355-2.385 2.782-2.07-.072-3.877-.967-5.083-2.347-.655 1.017-.34 2.347.76 3.025-.393 0-.786-.121-1.1-.29-.026 1.04.786 2.032 1.965 2.25-.34.096-.734.096-1.1.048.314.895 1.23 1.548 2.305 1.572a5.339 5.339 0 0 1-3.668.944z" fill="#fff"/></svg>
